48x48/apps/com.notepadqq.Notepadqq.svg

<svg xmlns="http://www.w3.org/2000/svg" width="48" height="48"><path style="opacity:.2" d="M10 5c-1.108 0-2 .892-2 2v36c0 1.108.892 2 2 2h25c2.77 0 5-2.23 5-5V10c0-2.77-2.23-5-5-5z"/><path style="fill:#7a7a7a" d="M10 4c-1.108 0-2 .892-2 2v36c0 1.108.892 2 2 2h25c2.77 0 5-2.23 5-5V9c0-2.77-2.23-5-5-5z"/><rect style="opacity:.2" width="32" height="16" x="8" y="17" ry="0"/><rect style="fill:#34c637" width="32" height="16" x="8" y="16" ry="0"/><rect style="opacity:.2;fill:#f4f4f7" width="32" height="1" x="8" y="16" ry="0"/><path style="fill:#4f4f4f" d="M34 4v40h1c.343 0 .677-.034 1-.1V4.1a5.054 5.054 0 0 0-1-.1h-1z"/><path style="opacity:.2" d="M13 22v6h1v-5h2c.554 0 1 .446 1 1v4h1v-4c0-1-1-2-2-2z"/><path style="fill:#f4f4f7" d="M13 21v6h1v-5h2c.554 0 1 .446 1 1v4h1v-4c0-1-1-2-2-2z"/><path style="opacity:.2" d="M22 22c-1.108 0-2 .892-2 2v2c0 1.108.892 2 2 2h2v2h1v-8zm0 1h2v4h-2c-.5 0-1-.523-1-1v-2c0-.5.5-1 1-1z"/><path style="fill:#f4f4f7" d="M22 21c-1.108 0-2 .892-2 2v2c0 1.108.892 2 2 2h2v2h1v-8zm0 1h2v4h-2c-.5 0-1-.523-1-1v-2c0-.5.5-1 1-1z"/><path style="opacity:.2" d="M29 22c-1.108 0-2 .892-2 2v2c0 1.108.892 2 2 2h2v2h1v-8zm0 1h2v4h-2c-.5 0-1-.523-1-1v-2c0-.5.5-1 1-1z"/><path style="fill:#f4f4f7" d="M29 21c-1.108 0-2 .892-2 2v2c0 1.108.892 2 2 2h2v2h1v-8zm0 1h2v4h-2c-.5 0-1-.523-1-1v-2c0-.5.5-1 1-1z"/><path style="opacity:.1;fill:#f4f4f7" d="M10 4c-1.108 0-2 .892-2 2v1c0-1.108.892-2 2-2h25c2.77 0 5 2.23 5 5V9c0-2.77-2.23-5-5-5H10z"/></svg>

<svg xmlns="http://www.w3.org/2000/svg" width="48" height="48" version="1.1">
 <path style="opacity:0.2" d="M 10,5 C 8.892,5 8,5.892 8,7 V 43 C 8,44.108 8.892,45 10,45 H 35 C 37.77,45 40,42.77 40,40 V 10 C 40,7.23 37.77,5 35,5 Z"/>
 <path style="fill:#7a7a7a" d="M 10,4 C 8.892,4 8,4.892 8,6 V 42 C 8,43.108 8.892,44 10,44 H 35 C 37.77,44 40,41.77 40,39 V 9 C 40,6.23 37.77,4 35,4 Z"/>
 <rect style="opacity:0.2" width="32" height="16" x="8" y="17" ry="0"/>
 <rect style="fill:#34c637" width="32" height="16" x="8" y="16" ry="0"/>
 <rect style="opacity:0.2;fill:#f4f4f7" width="32" height="1" x="8" y="16" ry="0"/>
 <path style="fill:#4f4f4f" d="M 34 4 L 34 44 L 35 44 C 35.343 44 35.677 43.966 36 43.9 L 36 4.0996 C 35.677 4.0345 35.343 4 35 4 L 34 4 z"/>
 <path style="opacity:0.2" d="M 13,22 V 28 H 14 V 23 H 16 C 16.554,23 17,23.446 17,24 V 28 H 18 V 24 C 18,23 17,22 16,22 Z"/>
 <path style="fill:#f4f4f7" d="M 13,21 V 27 H 14 V 22 H 16 C 16.554,22 17,22.446 17,23 V 27 H 18 V 23 C 18,22 17,21 16,21 Z"/>
 <path style="opacity:0.2" d="M 22,22 C 20.892,22 20,22.892 20,24 V 26 C 20,27.108 20.892,28 22,28 H 24 V 30 H 25 V 22 Z M 22,23 H 24 V 27 H 22 C 21.5,27 21,26.477 21,26 V 24 C 21,23.5 21.5,23 22,23 Z"/>
 <path style="fill:#f4f4f7" d="M 22,21 C 20.892,21 20,21.892 20,23 V 25 C 20,26.108 20.892,27 22,27 H 24 V 29 H 25 V 21 Z M 22,22 H 24 V 26 H 22 C 21.5,26 21,25.477 21,25 V 23 C 21,22.5 21.5,22 22,22 Z"/>
 <path style="opacity:0.2" d="M 29,22 C 27.892,22 27,22.892 27,24 V 26 C 27,27.108 27.892,28 29,28 H 31 V 30 H 32 V 22 Z M 29,23 H 31 V 27 H 29 C 28.5,27 28,26.477 28,26 V 24 C 28,23.5 28.5,23 29,23 Z"/>
 <path style="fill:#f4f4f7" d="M 29,21 C 27.892,21 27,21.892 27,23 V 25 C 27,26.108 27.892,27 29,27 H 31 V 29 H 32 V 21 Z M 29,22 H 31 V 26 H 29 C 28.5,26 28,25.477 28,25 V 23 C 28,22.5 28.5,22 29,22 Z"/>
 <path style="opacity:0.1;fill:#f4f4f7" d="M 10 4 C 8.892 4 8 4.892 8 6 L 8 7 C 8 5.892 8.892 5 10 5 L 35 5 C 37.77 5 40 7.23 40 10 L 40 9 C 40 6.23 37.77 4 35 4 L 10 4 z"/>
</svg>
